site/themes/s2b_hugo_theme/static/img/cal/icons/loop.svg

<svg width="80" height="80" viewBox="0 0 80 80" fill="none" xmlns="http://www.w3.org/2000/svg">
  <path fill-rule="evenodd" clip-rule="evenodd" d="M41.768 17.0411L33.5296 9.83247C32.6984 9.1051 32.6141 7.84158 33.3415 7.01031L34.6585 5.50515C35.3859 4.67388 36.6494 4.58965 37.4807 5.31701L51.9755 18C52.6265 18.5697 53 19.3926 53 20.2577C53 21.1228 52.6265 21.9458 51.9755 22.5155L37.4807 35.1985C36.6494 35.9258 35.3859 35.8416 34.6585 35.0103L33.3415 33.5052C32.6141 32.6739 32.6984 31.4104 33.5296 30.683L42.2634 23.041L40.8018 23.0414L40.0975 23.0417L39.9009 23.0419H39.8993C39.8533 23.042 39.8347 23.042 39.8397 23.0419C27.7538 23.1857 18 33.0285 18 45.149C18 50.491 19.8946 55.3905 23.0486 59.2122C23.478 59.7325 23.9307 60.2329 24.4052 60.7116L24.4713 60.6455C33.1053 69.2794 47.1038 69.2794 55.7377 60.6455C63.8954 52.4878 64.3454 39.5413 57.0879 30.8553C56.3797 30.0076 56.3709 28.7459 57.1519 27.9648L58.5662 26.5506C59.3472 25.7696 60.6199 25.7654 61.3442 26.5992C65.9553 31.9072 68.2449 38.5327 68.2129 45.149H68.2174C68.2174 60.673 55.6327 73.2577 40.1087 73.2577C24.5847 73.2577 12 60.673 12 45.149C12 29.7387 24.4007 17.2251 39.7683 17.0424C39.8152 17.0418 40.6889 17.0414 41.768 17.0411Z" fill="black"/>
</svg>

<svg xmlns="http://www.w3.org/2000/svg" width="80" height="80" fill="none"><path fill="#000" fill-rule="evenodd" d="M41.768 17.041 33.53 9.832a2 2 0 0 1-.188-2.822l1.316-1.505a2 2 0 0 1 2.823-.188L51.975 18a3 3 0 0 1 0 4.515L37.481 35.2a2 2 0 0 1-2.823-.189l-1.316-1.505a2 2 0 0 1 .188-2.822l8.733-7.642H39.84C27.755 23.187 18 33.03 18 45.15a22.018 22.018 0 0 0 5.049 14.063c.429.52.882 1.02 1.356 1.5l.066-.067c8.634 8.634 22.633 8.634 31.267 0 8.157-8.157 8.607-21.104 1.35-29.79-.708-.847-.717-2.11.064-2.89l1.414-1.414c.781-.781 2.054-.786 2.778.048a28.02 28.02 0 0 1 6.869 18.55h.004c0 15.524-12.584 28.109-28.108 28.109C24.585 73.258 12 60.673 12 45.149c0-15.41 12.4-27.924 27.768-28.107h2Z" clip-rule="evenodd"/></svg>
